Numix-Light-GalliumOS/22/status/battery-missing.svg

<?xml version="1.0" encoding="UTF-8" standalone="no"?>
<svg
   xmlns:dc="http://purl.org/dc/elements/1.1/"
   xmlns:cc="http://creativecommons.org/ns#"
   xmlns:rdf="http://www.w3.org/1999/02/22-rdf-syntax-ns#"
   xmlns:svg="http://www.w3.org/2000/svg"
   xmlns="http://www.w3.org/2000/svg"
   xmlns:sodipodi="http://sodipodi.sourceforge.net/DTD/sodipodi-0.dtd"
   xmlns:inkscape="http://www.inkscape.org/namespaces/inkscape"
   width="22"
   viewBox="0 0 22 22"
   height="22"
   id="svg2"
   version="1.1"
   inkscape:version="0.91 r"
   sodipodi:docname="xfpm-ups-missing.svg">
  <metadata
     id="metadata12">
    <rdf:RDF>
      <cc:Work
         rdf:about="">
        <dc:format>image/svg+xml</dc:format>
        <dc:type
           rdf:resource="http://purl.org/dc/dcmitype/StillImage" />
      </cc:Work>
    </rdf:RDF>
  </metadata>
  <defs
     id="defs10" />
  <sodipodi:namedview
     pagecolor="#ffffff"
     bordercolor="#666666"
     borderopacity="1"
     objecttolerance="10"
     gridtolerance="10"
     guidetolerance="10"
     inkscape:pageopacity="0"
     inkscape:pageshadow="2"
     inkscape:window-width="1280"
     inkscape:window-height="998"
     id="namedview8"
     showgrid="true"
     inkscape:zoom="24.332182"
     inkscape:cx="3.9546826"
     inkscape:cy="8.6492181"
     inkscape:window-x="0"
     inkscape:window-y="0"
     inkscape:window-maximized="1"
     inkscape:current-layer="svg2">
    <inkscape:grid
       type="xygrid"
       id="grid2983" />
  </sodipodi:namedview>
  <path
     style="opacity:0.40000000000000002;fill:#353535;fill-opacity:1"
     inkscape:connector-curvature="0"
     d="M 8,3 8,5 5,5 5,19 17,19 17,5 14,5 14,3 8,3 z M 7.625,8 c 0.147343,0.0011 0.282592,0.03264 0.40625,0.0625 0.01931,0.0018 0.04344,-0.0024 0.0625,0 0.14047,0.02105 0.280167,0.06011 0.40625,0.125 0.0092,0.0045 0.02214,-0.0048 0.03125,0 0.02416,0.01319 0.03907,0.04718 0.0625,0.0625 0.04404,0.0288 0.05253,0.0567 0.09375,0.09375 0.05946,0.05344 0.134816,0.114452 0.1875,0.1875 0.363467,0.336981 0.714152,0.67898 1.0625,1.03125 0.0051,0.0051 0.0261,-0.0051 0.03125,0 0.345459,0.344731 0.694049,0.709155 1.03125,1.0625 0.346758,-0.353836 0.682902,-0.71023 1.03125,-1.0625 0.348348,-0.35227 0.699037,-0.694269 1.0625,-1.03125 0.192002,-0.266224 0.45557,-0.381243 0.71875,-0.4375 0.02989,-0.01042 0.06309,-0.02262 0.09375,-0.03125 0.07351,-0.02211 0.16996,-0.01975 0.25,-0.03125 0.224168,-0.02813 0.455602,-0.02404 0.78125,0.03125 0.05712,0.407412 0.06696,0.744636 0,1.03125 -0.0023,0.0097 0.0024,0.02166 0,0.03125 -0.02045,0.141132 -0.05724,0.246585 -0.125,0.375 -0.03927,0.07441 -0.06357,0.147887 -0.125,0.21875 -0.05506,0.0657 -0.11003,0.124433 -0.1875,0.1875 L 12.375,12 l 1.0625,1.0625 c 0.352893,0.347732 0.724922,0.699677 1.0625,1.0625 0.296473,0.213066 0.39134,0.48396 0.4375,0.78125 0.01281,0.08253 0.02825,0.16448 0.03125,0.25 0.02819,0.223782 0.02415,0.487406 -0.03125,0.8125 C 14.75974,15.99362 14.619122,15.9976 14.46875,16 14.28918,16.0073 14.108825,15.9914 13.9375,15.96875 13.785048,15.94951 13.637739,15.91617 13.5,15.84375 13.42206,15.80364 13.35138,15.75054 13.28125,15.6875 13.22179,15.63406 13.14644,15.57305 13.09375,15.5 L 11,13.40625 8.875,15.5 c -0.06318,0.07733 -0.12168,0.13255 -0.1875,0.1875 -0.248134,0.223019 -0.525931,0.27029 -0.84375,0.28125 -0.01045,0.0012 -0.02068,-0.0011 -0.03125,0 C 7.74755,15.97515 7.694761,15.99902 7.625,16 7.59772,16.000382 7.55935,16.000433 7.53125,16 7.380882,15.9977 7.209007,15.9936 7.03125,15.96875 7.028369,15.793892 7.00654,15.616641 7,15.4375 6.999176,15.38514 6.9973,15.32998 7,15.28125 6.999534,15.176347 7.01947,15.070112 7.03125,14.96875 7.05006,14.806951 7.08199,14.675005 7.15625,14.53125 7.19643,14.45345 7.24935,14.38252 7.3125,14.3125 7.36604,14.25314 7.426824,14.17759 7.5,14.125 7.842862,13.767187 8.212126,13.412614 8.5625,13.0625 8.915393,12.714768 9.239287,12.346146 9.59375,12 L 8.5625,10.96875 C 8.209607,10.621018 7.837577,10.269075 7.5,9.90625 7.42253,9.84318 7.36756,9.784455 7.3125,9.71875 7.147332,9.521648 7.060157,9.322025 7.03125,9.09375 7.02225,9.02273 7.03335,8.949747 7.03125,8.875 7.00448,8.641226 6.98793,8.371508 7.03125,8.0625 7.25321,8.024814 7.455445,7.9987 7.625,8 z"
     id="path4" />
</svg>

<svg xmlns="http://www.w3.org/2000/svg" viewBox="0 0 22 22">
 <path d="m 8 3 0 2 -3 0 0 14 12 0 0 -14 -3 0 0 -2 -6 0 z m -0.375 5 c 0.147 0.001 0.283 0.033 0.406 0.063 0.019 0.002 0.043 -0.002 0.063 0 0.14 0.021 0.28 0.06 0.406 0.125 0.009 0.005 0.022 -0.005 0.031 0 0.024 0.013 0.039 0.047 0.063 0.063 0.044 0.029 0.053 0.057 0.094 0.094 0.059 0.053 0.135 0.114 0.188 0.188 0.363 0.337 0.714 0.679 1.063 1.031 0.005 0.005 0.026 -0.005 0.031 0 0.345 0.345 0.694 0.709 1.031 1.063 0.347 -0.354 0.683 -0.71 1.031 -1.063 0.348 -0.352 0.699 -0.694 1.063 -1.031 0.192 -0.266 0.456 -0.381 0.719 -0.438 0.03 -0.01 0.063 -0.023 0.094 -0.031 0.074 -0.022 0.17 -0.02 0.25 -0.031 0.224 -0.028 0.456 -0.024 0.781 0.031 0.057 0.407 0.067 0.745 0 1.031 -0.002 0.01 0.002 0.022 0 0.031 -0.02 0.141 -0.057 0.247 -0.125 0.375 -0.039 0.074 -0.064 0.148 -0.125 0.219 -0.055 0.066 -0.11 0.124 -0.188 0.188 l -2.125 2.094 l 1.063 1.063 c 0.353 0.348 0.725 0.7 1.063 1.063 0.296 0.213 0.391 0.484 0.438 0.781 0.013 0.083 0.028 0.164 0.031 0.25 0.028 0.224 0.024 0.487 -0.031 0.813 c -0.178 0.025 -0.318 0.029 -0.469 0.031 -0.18 0.007 -0.36 -0.009 -0.531 -0.031 -0.152 -0.019 -0.3 -0.053 -0.438 -0.125 -0.078 -0.04 -0.149 -0.093 -0.219 -0.156 -0.059 -0.053 -0.135 -0.114 -0.188 -0.188 l -2.094 -2.094 -2.125 2.094 c -0.063 0.077 -0.122 0.133 -0.188 0.188 -0.248 0.223 -0.526 0.27 -0.844 0.281 -0.01 0.001 -0.021 -0.001 -0.031 0 c -0.065 0.006 -0.118 0.03 -0.188 0.031 -0.027 0 -0.066 0 -0.094 0 -0.15 -0.002 -0.322 -0.006 -0.5 -0.031 -0.003 -0.175 -0.025 -0.352 -0.031 -0.531 -0.001 -0.052 -0.003 -0.108 0 -0.156 0 -0.105 0.019 -0.211 0.031 -0.313 0.019 -0.162 0.051 -0.294 0.125 -0.438 0.04 -0.078 0.093 -0.149 0.156 -0.219 0.054 -0.059 0.114 -0.135 0.188 -0.188 0.343 -0.358 0.712 -0.712 1.063 -1.063 0.353 -0.348 0.677 -0.716 1.031 -1.063 l -1.031 -1.031 c -0.353 -0.348 -0.725 -0.7 -1.063 -1.063 -0.077 -0.063 -0.132 -0.122 -0.188 -0.188 -0.165 -0.197 -0.252 -0.397 -0.281 -0.625 -0.009 -0.071 0.002 -0.144 0 -0.219 -0.027 -0.234 -0.043 -0.503 0 -0.813 0.222 -0.038 0.424 -0.064 0.594 -0.063 z" style="fill:#353535;opacity:0.4;fill-opacity:1"/>
</svg>
